X: 35733
T: Sainza Seivane
R: waltz
M: 3/4
K: Dmajor
AB AF D2|AB AF D2|AB AF A2|GG3 cd|
cA F2 cd|cA F2 cd|ec dc BA|A2 AB AF|
D2 AB AF|D2 AB AF|B2 A/B/c/d/ e/d/c/B/|A/G/F/E/ D4:|
dd|dd c/d/e cd|cB A2 AA|AA G/A/B GE|GG GG F/G/A/B/|
c/d/ dd dd c/d/|ec dc B (A|A) AA AA B/A/|B/A/B/A/ GF ED|D4:|

